X:2
M:C|
L:1/8
Q:1/2=70
K:A
E2 | A2- A>c B>AF>E | A>ce>a Tf2e2 | f>ec>A B>AF>A | B>cB>A F2 c>B |!
|:c>d | e>fe>c A2 a>g | f>ed>c d>ef>g | a>gf>e d>cB>A | B>Ac>A F2 c>B |!

